X: 0
T: Great Art Thou, Lord, O'er All The Earth
Z: Mr. Herbert Stephen Irons
Z: Copyright © 2004 by Douglas D. Anderson
Z: Released To The Public Domain
L: 1/4
M: 6/8
Q: 1/4=95
V: P1 name="Staff"
%%MIDI program 1 19
K: F
[V: P1]  c3/ | F G/ A B/ | c c/ c f/ | e c/ (d/ c/) =B/ | (c3/ c) c/ | f f/ e e/ | (d/ c/) d/ c c/ | F G/ A B/ | (c3/ c)z/ | (C D/ E) c/ | f c/ A F/ | G A/ B d/ | (c/ d/) B/ A/ B/ G/ | (F3 F2)z/|]
w: Great art Thou, Lord, o'er all the earth, Great are Thy works_ a- bove,_ An- gel ic mirth hailed Thy_ glad birth, The great- ness of Thy love;_ .__ Who bless- ed came in God's great Name, Born by_ the E- ter nal Dove_

